X:128
T:Duncan McQueen's
S:MS.22170 (music book compiled by J. Crichton Donaldson, 1853-1855)
N:p46 #466
N:bar 6 originally |e>fed cAA2 d/e/|
N:third part marked as repeated in MS
M:C
L:1/8
Q:1/4=120
K:B Minor
  F<BB>B       dBBf       |  f>ee>d    cA A2   |F<BB>c dBBf      |f>def          dBB2  :|
  f>dBf        d<Bf>d     |  e>fed     cA Ad/e/|f>dBd  d>Bf>d    |e>gfe          dBB2  :|
  B>bba        ab    b2   |  A>aae     ea a2   |B>bba  a>b bc'/b/|af/g/ f/e/d/c/ B2  B>a|
(3bc'b (3aba (3faf   d>e  |(3faf (3efd c>AAd   |F>Bd>e f>deb     |afe>g          d<B B2||
  A>dA>d       A>d   Fd/e/|  fded      c<AAd   |A>dF>d A>d Fd/e/ |f>def          d<B B2:|

